X: 1
T: Laxo Burn
C: Arthur Scott Robertson (1984)
M: C|
L: 1/8
Z: John Chambers <jc:trillian.mit.edu> from handwritten MS (by Barbara McOwen?)
K: D
AG \
|: "D"FD~D2 FGA=c | "G"BG~G2 GABd | "A7"^cA~A2 cdeg |1 "D"fdcd "G"Bd"A"Ad :|2 "D"fddc d3 |]
g \
| "D"f2df Afdf | "Em"g2eg Bgeg | "E7"^g2eg Bgeg | "A"a2ea "A7"ceA |]
g \
| "D"f2df Afdf | "Em"g2eg "E7"Bge^g | "A7"aA~A2 cdeg | "D"fddc d2 |]
